folder-account-outline.svg

<svg fill="currentColor" viewBox="0 0 24 24"><path d="M15 14c1.33 0 4 .67 4 2v1h-8v-1c0-1.33 2.67-2 4-2m0-1c1.11 0 2-.89 2-2s-.89-2-2-2a2 2 0 1 0 0 4m7-5v10c0 1.11-.89 2-2 2H4a2 2 0 0 1-2-2V6a2 2 0 0 1 2-2h6l2 2h8a2 2 0 0 1 2 2m-2 0H4v10h16z"/></svg>

<svg  viewBox="0 0 24 24" fill="currentColor"><path  d="M15 14C16.33 14 19 14.67 19 16V17H11V16C11 14.67 13.67 14 15 14M15 13C16.11 13 17 12.11 17 11S16.11 9 15 9C13.9 9 13 9.89 13 11C13 12.11 13.9 13 15 13M22 8V18C22 19.11 21.11 20 20 20H4C2.9 20 2 19.11 2 18V6C2 4.89 2.9 4 4 4H10L12 6H20C21.11 6 22 6.9 22 8M20 8H4V18H20V8Z"/></svg>
